X:23
T:Sodiac. TJD.23
T:Zodiac,aka. TJD.23
M:3/8
L:1/8
Q:1/8=120
S:T.J.Dixon MS1, Lincolnshire, 1798
R:waltz
N:Note values changed and bar lines added in line 2
A:Lincolnshire, Holton le Moor
Z:vmp.R.Greig2010
K:Bb
F|BcB|Ffd|ce/c/A|ce/c/A|BcB|Ffd|ce/c/A|B2||!
A/B/|cAc|AF2|dBd|BF2|ecA|fdB|cAc|AF2|dBd|BF2|!
ec”^bar line added”A|B2||f/g/a/|bag|fdd|ecc|dBF|bag|fdd|ecA|B2||!
d/e/|fdg|e2c|A2f|d2B|fdg|e2c|A2f|B2|]

